modules/hawcons-filled/icons/icon-68-document-time.svg

<?xml version="1.0" encoding="UTF-8" standalone="no"?>
<svg width="32px" height="32px" viewBox="0 0 32 32" version="1.1" xmlns="http://www.w3.org/2000/svg" xmlns:xlink="http://www.w3.org/1999/xlink" xmlns:sketch="http://www.bohemiancoding.com/sketch/ns">
    <!-- Generator: Sketch 3.0.3 (7891) - http://www.bohemiancoding.com/sketch -->
    <title>icon 68 document time</title>
    <desc>Created with Sketch.</desc>
    <defs></defs>
    <g id="Page-1" stroke="none" stroke-width="1" fill="none" fill-rule="evenodd" sketch:type="MSPage">
        <g id="icon-68-document-time" sketch:type="MSArtboardGroup" fill="#929292">
            <path d="M21.9775785,21 C21.7398043,18.3614309 19.6385691,16.2601957 17,16.0224215 L17,16.0224215 L17,21 L21.9775785,21 L21.9775785,21 Z M21.9775785,22 C21.7249641,24.8032501 19.3690214,27 16.5,27 C13.4624337,27 11,24.5375663 11,21.5 C11,18.6309786 13.1967499,16.2750359 16,16.0224215 L16,22 L16.75,22 L21.9775785,22 L21.9775785,22 Z M19,3 L9.0085302,3 C7.8992496,3 7,3.89833832 7,5.00732994 L7,27.9926701 C7,29.1012878 7.89092539,30 8.99742191,30 L24.0025781,30 C25.1057238,30 26,29.1090746 26,28.0025781 L26,11 L21.0059191,11 C19.8980806,11 19,10.1132936 19,9.00189865 L19,3 L19,3 Z M20,3 L20,8.99707067 C20,9.55097324 20.4509752,10 20.990778,10 L26,10 L20,3 L20,3 Z" id="document-time" sketch:type="MSShapeGroup"></path>
        </g>
    </g>
</svg>

<svg width="32" height="32" viewBox="0 0 32 32" xmlns="http://www.w3.org/2000/svg"><path d="M21.978 21A5.502 5.502 0 0 0 17 16.022V21h4.978zm0 1A5.5 5.5 0 1 1 16 16.022V22h5.978zM19 3H9.009C7.899 3 7 3.898 7 5.007v22.986A2 2 0 0 0 8.997 30h15.006C25.106 30 26 29.11 26 28.003V11h-4.994A1.997 1.997 0 0 1 19 9.002V3zm1 0v5.997c0 .554.451 1.003.99 1.003H26l-6-7z" fill="#929292" fill-rule="evenodd"/></svg>
